src/assets/metronic/worbby/global/img/icon-number-one.svg

<?xml version="1.0" encoding="UTF-8"?>
<svg width="80px" height="80px" viewBox="0 0 80 80" version="1.1" xmlns="http://www.w3.org/2000/svg" xmlns:xlink="http://www.w3.org/1999/xlink">
    <defs></defs>
    <g id="Desktop" stroke="none" stroke-width="1" fill="none" fill-rule="evenodd">
        <g id="Sem-Titulo" transform="translate(-735.000000, -285.000000)">
            <g id="icon-number-one-copy-3" transform="translate(735.000000, 285.000000)">
                <circle id="Oval" fill="#FFFFFF" cx="27.5" cy="27.5" r="27.5"></circle>
                <path d="M66.7437655,39.1856448 L68.4215064,35.8044544 L71.0265468,30.5547763 C71.1130261,30.3768623 71.1055653,30.1758971 70.9977581,29.991074 C70.9054672,29.8299867 70.7524279,29.7347978 70.5533687,29.7229083 L60.9460542,29.0930403 L60.6990178,25.3440937 L60.3110328,19.448414 C60.3024385,19.2779933 60.2110179,19.1301683 60.0290066,19.0261705 C59.8826515,18.9421409 59.6402305,18.9347962 59.4848731,19.0117194 L50.8565682,23.2912653 L48.7633124,20.1607725 L45.4839855,15.2563584 C45.3731519,15.0884607 45.2087784,15 45.0133831,15 C44.8150625,15 44.6432593,15.0920351 44.5333521,15.2568628 L39.1949541,23.274197 L35.8182908,21.6082232 L30.5585039,19.013152 C30.4095609,18.9394176 30.1386826,18.9470054 29.9937262,19.0284834 C29.83268,19.1207155 29.7383251,19.2727462 29.726347,19.4756315 L29.1181462,29.092385 L25.3591227,29.3388314 L19.4742047,29.724571 C19.2946282,29.7352219 19.1314657,29.8361881 19.0271188,30.0180899 C18.9304509,30.184005 18.9242782,30.3732646 19.0162666,30.5589525 L23.2763106,39.1900977 L20.1408406,41.2770781 L15.2589621,44.5264734 C15.0918298,44.6378738 15,44.8092286 15,45.0068585 C15,45.2044884 15.0918298,45.3758433 15.2566491,45.485703 L23.2763106,50.8236193 L21.6092784,54.2011424 L19.0134353,59.4604903 C18.924871,59.6392558 18.9305946,59.8264635 19.0464679,60.0259774 C19.1358112,60.184948 19.2853995,60.2780414 19.5008368,60.2908088 L29.1081513,60.9206768 L29.3551877,64.6696233 L29.7414556,70.5335893 C29.7529923,70.732972 29.8495673,70.8884915 30.0251989,70.9875466 C30.1688188,71.0700057 30.418164,71.0775439 30.5773887,70.9980123 L39.2086737,66.7395201 L41.2955173,69.8735918 L44.5343281,74.7378258 C44.6465188,74.9043803 44.8258398,75 45.0271028,75 C45.2254234,75 45.3972265,74.9079649 45.5071337,74.7431372 L50.8477175,66.7225205 L54.2261842,68.3937475 L59.45171,70.978698 C59.5493547,71.0265149 59.6468114,71.0494956 59.7345558,71.0494956 C59.8235439,71.0494956 59.9369493,71.0190058 60.0193204,70.9715166 C60.1850823,70.8765837 60.2869179,70.712756 60.3010619,70.5006749 L60.9317514,60.8844896 L64.691336,60.6468094 L70.5301876,60.2777226 C70.7282821,60.264295 70.9049824,60.1542181 70.9977581,59.995209 C71.0929703,59.8290226 71.0985142,59.6341714 71.012513,59.4588384 L66.7366566,50.8187514 L69.865276,48.7275442 L74.7373696,45.4710074 C74.9037209,45.3589963 74.999327,45.1802115 74.9999532,44.9198782 C75.0022262,44.7869314 74.921724,44.6336789 74.7507351,44.5151133 L66.7437655,39.1856448 Z M77.8144575,40.8761752 C79.2009984,41.8143629 80.0273208,43.3546709 79.9993099,44.9929986 C79.9993099,46.6453291 79.1729875,48.1856371 77.800452,49.109822 L72.8145068,52.4424885 L75.475545,57.8195639 C76.2038291,59.3038608 76.1618127,61.040208 75.3354903,62.4824965 C74.4951625,63.924785 73.0105833,64.8489698 71.3579385,64.9609922 L65.3776053,65.3390678 L64.9854523,71.3182637 C64.8734086,72.9985997 63.949048,74.4828966 62.5064852,75.3090618 C61.778201,75.7291458 60.9098622,75.9671934 60.0415235,75.9671934 C59.2712229,75.9671934 58.5149279,75.785157 57.8286601,75.4490898 L52.4785728,72.8025605 L49.1592778,77.7875575 C48.2349172,79.1738348 46.6943161,80 45.0276659,80 C43.3610156,80 41.8204146,79.1738348 40.896054,77.8015603 L37.5767589,72.8165633 L32.2126662,75.4630926 C30.7560979,76.1912382 28.949393,76.135227 27.5348411,75.3230646 C26.0922783,74.5109022 25.1539122,73.0126025 25.055874,71.3182637 L24.663721,65.3670734 L18.6833878,64.974995 C17.0167375,64.8769754 15.5181529,63.9527906 14.6918305,62.4824965 C13.8655081,61.0682136 13.8094863,59.3178636 14.5517759,57.8195639 L17.1988086,52.4564913 L12.2128633,49.1378276 C10.8263224,48.2136427 10,46.6733347 10,45.0070014 C10,43.3406681 10.8263224,41.8003601 12.2128633,40.8761752 L17.1988086,37.5575115 L14.5517759,32.1944389 C13.8094863,30.6961392 13.8655081,28.9457892 14.705836,27.5035007 C15.5321583,26.0612122 17.030743,25.1370274 18.6833878,25.0390078 L24.663721,24.6469294 L25.0418685,18.6677335 C25.1399068,17.0014003 26.0642674,15.5171034 27.5068302,14.6909382 C28.949393,13.8787758 30.7560979,13.8367674 32.1986607,14.5509102 L37.5627535,17.1974395 L40.8820485,12.2124425 C41.8064091,10.8261652 43.3470102,10 45.0136604,10 C46.6803107,10 48.2209117,10.8261652 49.1452723,12.2264453 L52.4785728,17.2114423 L57.8426656,14.5509102 C59.3132393,13.8227646 61.1059387,13.8787758 62.5204906,14.6909382 C63.9910644,15.5311062 64.915425,17.0294059 64.9994578,18.6957391 L65.3916108,24.6469294 L71.371944,25.0390078 C73.0245888,25.1370274 74.509168,26.0612122 75.3354903,27.5035007 C76.1618127,28.9177836 76.23184,30.6681336 75.5035559,32.1664333 L72.8285123,37.5575115 L77.8144575,40.8761752 Z" id="Combined-Shape" fill="#1E2225" fill-rule="nonzero"></path>
                <path d="M33.2205185,54.2 C32.6745185,54.2 32.3885185,53.862 32.5185185,53.316 L33.3245185,50.04 L30.7245185,50.04 C30.1785185,50.04 29.9185185,49.676 30.0225185,49.13 L30.2305185,48.298 C30.3605185,47.804 30.6465185,47.596 31.1405185,47.596 L33.9225185,47.596 L35.3005185,42.162 L32.7005185,42.162 C32.1545185,42.162 31.8685185,41.798 31.9985185,41.252 L32.2325185,40.42 C32.3365185,39.952 32.6485185,39.744 33.1165185,39.744 L35.8725185,39.744 L36.6785185,36.676 C36.7825185,36.208 37.0685185,36 37.5625185,36 L38.4465185,36 C38.9925185,36 39.2785185,36.338 39.1485185,36.884 L38.4205185,39.744 L41.8785185,39.744 L42.6325185,36.676 C42.7625185,36.208 43.0485185,36 43.5425185,36 L44.4265185,36 C44.9985185,36 45.2845185,36.338 45.1285185,36.884 L44.4265185,39.744 L47.0005185,39.744 C47.5725185,39.744 47.8325185,40.082 47.7025185,40.654 L47.4945185,41.46 C47.3645185,41.954 47.0785185,42.162 46.5845185,42.162 L43.8285185,42.162 L42.4505185,47.596 L45.0505185,47.596 C45.6225185,47.596 45.9085185,47.934 45.7525185,48.506 L45.5445185,49.338 C45.4145185,49.832 45.1285185,50.04 44.6345185,50.04 L41.8785185,50.04 L40.9945185,53.498 C40.8645185,53.966 40.5785185,54.2 40.1105185,54.2 L39.2005185,54.2 C38.6285185,54.2 38.3425185,53.862 38.4985185,53.316 L39.3305185,50.04 L35.8725185,50.04 L34.9885185,53.498 C34.8845185,53.966 34.5985185,54.2 34.1045185,54.2 L33.2205185,54.2 Z M36.4705185,47.596 L39.9285185,47.596 L41.2545185,42.162 L37.7965185,42.162 L36.4705185,47.596 Z M55.0085185,54.2 L56.1785185,54.2 C56.8805185,54.2 57.2705185,53.81 57.2705185,53.108 L57.2705185,37.092 C57.2705185,36.39 56.9325185,36 56.3345185,36 C55.6845185,36 55.2945185,36.078 54.8005185,36.286 L50.0425185,38.444 C49.4445185,38.73 49.2105185,39.224 49.4185185,39.874 L49.6005185,40.446 C49.8085185,41.122 50.3285185,41.382 51.0045185,41.096 L53.9165185,39.822 L53.9165185,53.108 C53.9165185,53.81 54.3065185,54.2 55.0085185,54.2 Z" id="#1" fill="#1E2225"></path>
            </g>
        </g>
    </g>
</svg>

<svg xmlns="http://www.w3.org/2000/svg" width="80" height="80"><g fill="none" fill-rule="evenodd"><circle cx="27.5" cy="27.5" r="27.5" fill="#FFF"/><path fill="#1E2225" fill-rule="nonzero" d="M66.7438 39.1856l1.6777-3.381 2.605-5.2498c.0865-.178.079-.379-.0287-.5637-.0923-.161-.2454-.2562-.4444-.268l-9.6073-.63-.247-3.749-.388-5.8956c-.0086-.1704-.1-.3182-.282-.4222-.1463-.084-.3888-.0914-.544-.0145l-8.6284 4.2796-2.0933-3.1305-3.2793-4.9044c-.1108-.168-.2752-.2564-.4706-.2564-.1983 0-.37.092-.48.257L39.195 23.274l-3.3767-1.666-5.2598-2.595c-.149-.0738-.4198-.0662-.5648.0153-.161.0922-.2554.2442-.2674.447l-.6082 9.617-3.759.2463-5.8848.3858c-.1796.0106-.3427.1116-.447.2935-.0967.166-.103.3553-.011.541l4.26 8.631-3.1354 2.087-4.8818 3.2495c-.1672.1114-.259.2827-.259.4804 0 .1975.0918.3688.2566.4787l8.0197 5.338-1.667 3.3774-2.596 5.2595c-.0884.1788-.0827.366.0332.5655.0893.159.239.252.4543.2648l9.6074.63.247 3.7488.3863 5.864c.0115.1994.108.355.2837.454.1436.0824.393.09.5522.0104l8.6313-4.2585 2.0868 3.134 3.2388 4.8643c.1122.1666.2915.2622.4928.2622.1984 0 .3702-.092.48-.257l5.3407-8.0205 3.3785 1.6712 5.2255 2.585c.0977.0478.195.0708.283.0708.0888 0 .2022-.0305.2846-.078.1658-.095.2676-.2587.2818-.4708l.6308-9.6162 3.7595-.2377 5.839-.369c.198-.0135.3747-.1236.4675-.2826.0952-.1662.1007-.361.0147-.5364l-4.2758-8.64 3.1286-2.0913 4.872-3.2565c.1664-.112.262-.2908.2627-.551.0022-.133-.0783-.2863-.2493-.405l-8.007-5.3294zm11.0707 1.6906c1.3865.9382 2.2128 2.4785 2.1848 4.1168 0 1.6523-.8263 3.1926-2.1988 4.1168l-4.986 3.3327 2.661 5.377c.7283 1.4844.6863 3.2207-.14 4.663-.8403 1.4423-2.325 2.3665-3.9776 2.4785l-5.9804.378-.392 5.9793c-.1122 1.6803-1.0366 3.1646-2.479 3.9908-.7284.42-1.5967.6582-2.465.6582-.7704 0-1.5267-.182-2.213-.518l-5.35-2.6466-3.3193 4.985C48.235 79.1738 46.6943 80 45.0277 80c-1.6667 0-3.2073-.8262-4.1316-2.1984l-3.3192-4.985-5.364 2.6465c-1.4567.7282-3.2634.6722-4.678-.14-1.4425-.812-2.381-2.3104-2.479-4.0047l-.392-5.9512-5.9804-.392c-1.6667-.098-3.1652-1.0222-3.9916-2.4925-.8263-1.4143-.8823-3.1646-.14-4.663l2.647-5.363-4.986-3.3187C10.8264 48.2136 10 46.6733 10 45.007c0-1.6663.8263-3.2066 2.213-4.1308l4.9858-3.3187-2.647-5.363c-.7423-1.4984-.6863-3.2487.154-4.691.8264-1.4423 2.325-2.3665 3.9776-2.4645l5.9803-.392.3782-5.9793c.098-1.6663 1.0223-3.1506 2.4648-3.9768 1.4426-.8122 3.2493-.8542 4.692-.14l5.364 2.6464 3.3192-4.985C41.8064 10.8262 43.347 10 45.0137 10c1.6666 0 3.2072.8262 4.1316 2.2264l3.3333 4.985 5.364-2.6605c1.4706-.7282 3.2633-.6722 4.678.14 1.4705.84 2.3948 2.3384 2.479 4.0047l.392 5.9512 5.9803.392c1.6526.098 3.1372 1.0222 3.9635 2.4645.8263 1.4143.8963 3.1646.168 4.663l-2.675 5.391 4.986 3.3187z"/><path fill="#1E2225" d="M33.2205 54.2c-.546 0-.832-.338-.702-.884l.806-3.276h-2.6c-.546 0-.806-.364-.702-.91l.208-.832c.13-.494.416-.702.91-.702h2.782l1.378-5.434h-2.6c-.546 0-.832-.364-.702-.91l.234-.832c.104-.468.416-.676.884-.676h2.756l.806-3.068c.104-.468.39-.676.884-.676h.884c.546 0 .832.338.702.884l-.728 2.86h3.458l.754-3.068c.13-.468.416-.676.91-.676h.884c.572 0 .858.338.702.884l-.702 2.86h2.574c.572 0 .832.338.702.91l-.208.806c-.13.494-.416.702-.91.702h-2.756l-1.378 5.434h2.6c.572 0 .858.338.702.91l-.208.832c-.13.494-.416.702-.91.702h-2.756l-.884 3.458c-.13.468-.416.702-.884.702h-.91c-.572 0-.858-.338-.702-.884l.832-3.276h-3.458l-.884 3.458c-.104.468-.39.702-.884.702h-.884zm3.25-6.604h3.458l1.326-5.434h-3.458l-1.326 5.434zm18.538 6.604h1.17c.702 0 1.092-.39 1.092-1.092V37.092c0-.702-.338-1.092-.936-1.092-.65 0-1.04.078-1.534.286l-4.758 2.158c-.598.286-.832.78-.624 1.43l.182.572c.208.676.728.936 1.404.65l2.912-1.274v13.286c0 .702.39 1.092 1.092 1.092z"/></g></svg>
